X:1
Q:1/4=75
L:1/16
M:3/4
K:C clef=G2
V:1
%%MIDI program 56
^G62/16^G62/16^A62/16|G4-G31/16^G31/16^A62/16|c62/16c62/16^c62/16|c4-c31/16^A31/16^G62/16|
^A62/16^G62/16G62/16|^G8-^G62/16|^d62/16^d62/16^d62/16|^d4-^d31/16^c31/16c62/16|
^c62/16^c62/16^c62/16|^c4-^c31/16c31/16^A62/16|c62/16^c31/16c31/16^A31/16^G31/16|c4-c31/16^c31/16^d62/16|
f31/16^d31/32^c31/32c62/16^A62/16|^G12-|^G62/16
L:1/16
M:3/4
K:C clef=G2
V:2
%%MIDI program 57
C62/16^D62/16F62/16|^D4-^D31/16D31/16^D62/16|^D62/16^G62/16^A62/16|^G4-^G31/16G31/16^G62/16|
F62/16^D62/16^D62/16|^D8-^D62/16|^G62/16^G62/16^G62/16|^G4-^G31/16G31/16^G62/16|
G62/16^A62/16G62/16|G4-G31/16^G31/16G62/16|^G62/16G31/16^G31/16[^D-]2[^D^G]31/16|^G4-^G31/16G31/16^G62/16|
^G62/16^G62/16G62/16|^G12-|^G62/16
L:1/16
M:3/4
K:C clef=F4
V:3
%%MIDI program 65
^D,62/16^G,62/16F,62/16|^A,4-^A,31/16^A,31/16^A,62/16|^D62/16F62/16F62/16|^D4-^D31/16^C31/16C62/16|
^C62/16C62/16^A,31/16^C31/16|C8-C62/16|C62/16^D62/16C62/16|C4-C31/16^C31/16^D62/16|
^D62/16^D62/16^D62/16|^D4-^D31/16^D31/16^D62/16|^D62/16^D62/16^D62/16|^D4-^D31/16^C31/16C62/16|
^C31/16F31/16^D62/16^C62/16|C12-|C62/16
L:1/16
M:3/4
K:C clef=F4
V:4
%%MIDI program 58
^G,,62/16C,62/16^C,62/16|^D,4-^D,31/16F,31/16G,62/16|^G,62/16F,62/16^C,62/16|^D,4-^D,31/16E,31/16F,62/16|
^C,62/16^D,62/16^D,62/16|^G,,8-^G,,62/16|^G,,62/16C,62/16^D,62/16|^G,4-^G,31/16^A,31/16^G,62/16|
^D,62/16G,62/16^A,62/16|^D,4-^D,31/16^G,31/16^D,62/16|^G,62/16^A,31/16^G,31/16G,31/16F,31/16|^D,31/16^C,31/16C,31/16^A,,31/16^G,,62/16|
^C,31/16^A,,31/16^D,62/16^D,62/16|^G,,12-|^G,,62/16
L:1/16
M:3/4
K:C clef=G2
V:5
%%MIDI program 71
^G62/16^G62/16^A62/16|G4-G31/16^G31/16^A62/16|c62/16c62/16^c62/16|c4-c31/16^A31/16^G62/16|
^A62/16^G62/16G62/16|^G8-^G62/16|^d62/16^d62/16^d62/16|^d4-^d31/16^c31/16c62/16|
^c62/16^c62/16^c62/16|^c4-^c31/16c31/16^A62/16|c62/16^c31/16c31/16^A31/16^G31/16|c4-c31/16^c31/16^d62/16|
[f-]2[f-^d]31/32[f^c]31/32c62/16^A62/16|^G12-|^G62/16
L:1/16
M:3/4
K:C clef=F4
V:6
%%MIDI program 73
z4F62/16^C62/16|^D4-^D31/16F31/16G62/16|^G62/16F62/16^C62/16|^D4-^D31/16E31/16F62/16|
^C62/16^D62/16^D31/16^C31/16|C8-C62/16|^G,62/16C62/16^D62/16|^G4-^G31/16^D31/16^G62/16|
^D62/16G62/16^A62/16|^D4-^D31/16^A,31/16^D62/16|^G62/16^A31/16^G31/16G31/16F31/16|^D31/16^C31/16C31/16^A,31/16^G,62/16|
^C31/16^D31/32F31/32^G62/16^D31/16^C31/16|C12-|C62/16


